X: 14940
T: Gavotte Sicard
R: slide
M: 12/8
K: Bminor
|:fe<f B3/2B3/2 c3/2d3/2 e3|f3/2a3/2 f3/2e3/2 d3B3:|
|:fe<f B3/2B3/2 c3/2d3/2 e3|f3/2a3/2 f3/2e3/2 f3/2g3/2 f3/2e3/2
|de<d B3/2B3/2 c3/2d3/2 e3|f3/2a3/2 f3/2e3/2 d3B3:|

